X: 105204
T: REEL OF TULLOCH
Q:"Reel."
R: Reel.
%R:reel
N: This is version 1, for ABC software that doesn't understand voice overlays.
B: James Kerr "Merry Melodies" v.1 p.5 s.2 #4
Z: 2017 John Chambers <jc:trillian.mit.edu>
M: C
L: 1/8
K: A
uf |\
e2(Ac/d/) ecAa | e2(AB/c/) dB=Gf |\
e2(Ac/d/) eAcA | (BE) (3(EBe) dB =G ::\
B |\
cA (3(cde) (cA) AB | cA (3(cde) "_2nd"([=gd]B)=GB |\
cA (3(cde) (cA)cA | (BE) (3(EBe) dB=G :|\
"_Fine."HA2 ||
